X: 305704
M: 2/4
L: 1/16
K: F
c2 |\
f2f2 fage | c2c2c2 c2 | d2d2 defg | fede c2 A2 |\
c/d/c |\
b4 g2e2 | c'4 a2f2 | efga b2a2 | g^f/g/ dg c4 |\
fedc B2A2 | G2G2G2 AB | c2C2D2E2 | F2F2"^D.C."F2 |]


